source/img/logo-black-desc.svg

<svg width="217" height="37" viewBox="0 0 217 37" fill="none" xmlns="http://www.w3.org/2000/svg">
<path d="M0 37V0H36.3722V6.78333H6.78125V31.45H32.6733L64.1136 0H73.3608L36.3722 37H0Z" fill="#0E1823"/>
<path d="M77.6761 37H55.483L51.7841 33.3V27.75L55.483 24.05H77.6761V27.75H56.0994V33.3H77.6761V37Z" fill="#0E1823"/>
<path fill-rule="evenodd" clip-rule="evenodd" d="M78.9091 33.3V27.75L82.6079 24.05H100.486L104.185 27.75V33.3L100.486 37H82.6079L78.9091 33.3ZM82.6079 27.1333V34.5333H100.486V27.1333H82.6079Z" fill="#0E1823"/>
<path d="M105.418 27.75L109.116 24.05H126.378L130.077 27.75V37H126.994V27.1333H118.98V37H115.898V27.1333H108.5V37H105.418V27.75Z" fill="#0E1823"/>
<path d="M143.023 37L130.077 24.05H134.392L144.256 33.9167L154.119 24.05H159.051L146.105 37H143.023Z" fill="#0E1823"/>
<path d="M160.901 24.05V37H163.366V24.05H160.901Z" fill="#0E1823"/>
<path d="M168.298 37H190.491V33.9167H168.915V27.1333H190.491V24.05H168.298L164.599 27.75V33.3L168.298 37Z" fill="#0E1823"/>
<path d="M195.423 24.05L191.724 25.9V30.2167L195.423 32.0667H213.301V33.9167H191.724V37H213.301L217 35.15V30.8333L213.301 28.9833H194.807V27.1333H217V24.05H195.423Z" fill="#0E1823"/>
</svg>

<svg width="217" height="37" fill="none" xmlns="http://www.w3.org/2000/svg"><path d="M0 37V0h36.372v6.783H6.782V31.45h25.891L64.113 0h9.248L36.372 37H0zm77.676 0H55.483l-3.699-3.7v-5.55l3.699-3.7h22.193v3.7H56.1v5.55h21.577V37z" fill="#0E1823"/><path fill-rule="evenodd" clip-rule="evenodd" d="M78.91 33.3v-5.55l3.698-3.7h17.878l3.699 3.7v5.55l-3.699 3.7H82.608l-3.699-3.7zm3.698-6.167v7.4h17.878v-7.4H82.608z" fill="#0E1823"/><path d="M105.418 27.75l3.698-3.7h17.262l3.699 3.7V37h-3.083v-9.867h-8.014V37h-3.082v-9.867H108.5V37h-3.082v-9.25zM143.023 37l-12.946-12.95h4.315l9.864 9.867 9.863-9.867h4.932L146.105 37h-3.082zm17.878-12.95V37h2.465V24.05h-2.465zM168.298 37h22.193v-3.083h-21.576v-6.784h21.576V24.05h-22.193l-3.699 3.7v5.55l3.699 3.7zm27.125-12.95l-3.699 1.85v4.317l3.699 1.85h17.878v1.85h-21.577V37h21.577L217 35.15v-4.317l-3.699-1.85h-18.494v-1.85H217V24.05h-21.577z" fill="#0E1823"/></svg>
